X: 9118
T: Da Wattle O't
R: reel
M: 4/4
K: Dmajor
de|f2fd g2ge|f(ffd) faa2|gefd e(cd2)|1 A(FDF) Ad:|2 A(FDF) Add2||
A(ddc) d2(df)|efed efg2|fedc d2(FG)|A(GFG) Add2|
[e2A2][e2A2] [D3G,3]f|e(dcd) efg2|(fe)dc d2(FG)|A(GFG) Ad||

